X:1
T:Then Came the Morning
T:Then Came the Morning
T:William J & Gloria Gaither, 1982
C:William J & Gloria Gaither 1982
Z:All Rights Reserved
L:1/8
Q:1/4=75
M:4/4
K:C
V:1 treble nm="Voice"
%%MIDI channel 5
%%MIDI program 54
V:1
 z8 | z8 | z8 | z8 | z8 | z4 z2 z C |"C" E E2 E G3 C |"Em7" E E2 E G3 C |"F" A A2 A A- G2 F | %9
w: |||||they|all walked a way _|no thing to say They|just lost their dear _ est|
"Dm7" A6 z2 |"G" BBBB- B3 B |"F" AAAA- A3 A |"G7sus4" G2 GG"G7" G2 G-"G9/B"F |"C" E6 z C | %14
w: friend|all that He said _ _|now He was dead _ so|this was the way it would|end the|
 EEEG- G3 C | EEEG- G3 C |"F#7" A2 AA A-GFA- |"Dm7" A6 z A |"G" B B2 B d3 G |"Gmaj7" B B2 B d4 | %20
w: dreams they had dreamed _ were|not what they seemed _ now|that He was dead _ and gone|_ the|gar den the jail the|ham mer the nail|
"G7" z2 B2 B3 B |"Dm7" d4"G7" (3d2- c2 B2 |"C" c8 |"C7" z2 e2 e3 d |"Bb/F" d3- c"F" c4- | c4 A3 B | %26
w: how could a|night be _ so|long|Then came the|mor _ ning|_ night turned|
"F/C" A3 G"C" G4 | z2 E2 G2 c2 |"G7" e3 d"Dm7" f4 |"G7" z2 d2 (3d2 c2 d2 |"C" e4-"G7/C" f4- | %31
w: in to day|the stone was|rolled a way|hope rose with the|dawn _|
"C7" g2 e2 e3 d |"Bb/F" d3- c"F" c4 | z2 AA A A2 c |"F/C" A3 G"C" G4 | z2 EE G3 c | %36
w: _ then came the|morn _ ing|shad dows van ished be|fore the sun|death had lost and|
"G7" e3 d"Dm7" f4 |"G7" z2 d2 (3d2 c2 B2 |"C" c8 | z4 z2 z C |"C" E E2 E G3 C |"Em7" E E2 E G3 C | %42
w: life had won|for mor ning had|come|The|ang el the star the|kins from a far the|
"F" A A2 A A- G2 F |"Dm7" A6 z2 |"G" BBBB- B3 B |"F" AAAA- A3 A |"G7sus4" G2 GG"G7" G2 G-"G9/B"F | %47
w: wed ding the wat er the|wine|now it was done _ they'd|tak en her Son _ _|was ted be fore His _|
"C" E6 z C | EEEG- G3 C | EEEG- G3 C |"F#7" A2 AA A-GFA- |"Dm7" A6 z A |"G" B B2 B d3 G | %53
w: time She|knew it was true _ she'd|watched Him die too _ she'd|heard them call Him just a man|_ but|deep in her heart she|
"Gmaj7" B B2 B d4 |"G7" z2 B2 B3 B |"Dm7" d4"G7" (3d2- c2 B2 |"C" c8 |"C7" z2 e2 e3 d | %58
w: knew from the start|some how her|Son would live a|gain|Then came the|
"Bb/F" d3- c"F" c4- | c4 A3 B |"F/C" A3 G"C" G4 | z2 E2 G2 c2 |"G7" e3 d"Dm7" f4 | %63
w: mor _ ning|_ night turned|in to day|the stone was|rolled a way|
"G7" z2 d2 (3d2 c2 d2 |"C" e4-"G7/C" f4- |"C7" g2 e2 e3 d |"Bb/F" d3- c"F" c4 | z2 AA A A2 c | %68
w: hope rose with the|dawn _|_ then came the|morn _ ing|shad dows van ished be|
"F/C" A3 G"C" G4 | z2 EE G3 c |"G7" e3 d"Dm7" f4 |"G7" z2 d2 (3d2 c2 B2 |"C" c8 | z4 z2 z C | %74
w: fore the sun|death had lost and|life had won|for mor ning had|come|the|
"C" E E2 E G3 C |"Em7" E E2 E G3 C |"F" A A2 A A- G2 F |"Dm7" A6 z2 |"G" BBBB- B3 B | %79
w: old men will dream the|young men will seem to|know what they nev _ er|learned|dau ghters and sons _ will|
"F" AAAA- A3 A |"G7sus4" G2 GG"G7" G2 G-"G9/B"F |"C" E6 z C | EEEG- G3 C | EEEG- G3 C | %84
w: see what's to come _ be|fore the Mes siah's re _|turn *|won ders and signs _ _|plans and de signs _ will|
"F#7" A2 AA A-GFA- |"Dm7" A6 z A |"G" B B2 B d3 G |"Gmaj7" B B2 B d4 |"G7" z2 B2 B3 B | %89
w: pay out _ their fin al day|_ rum|ors and _ war will|threat en no more|the wait ing|
"Dm7" d4"G7" (3d2- c2 B2 |"C" c8 |"C7" z2 e2 e3 d |"Bb/F" d3- c"F" c4- | c4 A3 B | %94
w: bride is caught a|way|Here comes the|mor _ ning|_ night has|
"F/C" A3 G"C" G4 | z2 E2 G2 c2 |"G7" e3 d"Dm7" f4 |"G7" z2 d2 (3d2 c2 d2 |"C" e4-"G7/C" f4- | %99
w: turned to day|the clouds have|rolled a way|E ter _ nal|dawn _|
"C7" g2 e2 e3 d |"Bb/F" d3- c"F" c4 | z2 AA A A2 c |"F/C" A3 G"C" G4 | z2 EE G3 c | %104
w: _ then came the|morn _ ing|shad dows van ished be|fore the sun|death had lost and|
"G7" e3 d"Dm7" f4 |"G7" z2 d2 (3d2 c2 B2 |"C" c8- | c6 z2 | z8 | z8 | z8 | z8 |] %112
w: life had won|for mor ning had|come|_|||||

